dist/img/sk.svg

<svg width="83" height="66" viewBox="0 0 83 66" fill="none" xmlns="http://www.w3.org/2000/svg">
<rect width="83" height="66" fill="#C0D547"/>
<path fill-rule="evenodd" clip-rule="evenodd" d="M32.4085 52.4209C34.4177 52.4209 39.357 52.0721 43.0545 49.3652V51.4164H50.5054L50.5193 42.4169L53.6307 39.1937L60.4119 51.4164H69.3556L59.0863 33.9476L69.0904 22.9389H59.9374L50.5193 33.7382V13.0046H43.0545V16.2835C40.7803 13.8418 37.0966 12 31.3481 12C18.9161 12 16.586 19.5623 16.586 23.804C16.586 29.6222 19.7114 32.8593 25.167 34.1709L32.8969 36.0684C36.971 37.0729 39.8873 37.8125 39.8873 40.8262C39.8873 44.8446 35.6455 45.8074 31.8365 45.8074C24.8461 45.8074 23.688 41.7331 23.688 39.5704H16C16 44.3283 18.4278 52.4209 32.4085 52.4209ZM37.4873 29.5107L28.125 27.2363C26.5344 26.8596 24.0508 26.2317 24.0508 23.2179C24.0508 19.7716 27.7064 18.6136 30.776 18.6136C37.7663 18.6136 38.3943 22.6878 38.6035 24.4318H43.0545V31.5896C41.422 30.6408 39.4826 30.0128 37.4873 29.5107Z" fill="#222222"/>
</svg>

<svg width="83" height="66" fill="none" xmlns="http://www.w3.org/2000/svg"><path fill="#C0D547" d="M0 0h83v66H0z"/><path fill-rule="evenodd" clip-rule="evenodd" d="M32.408 52.42c2.01 0 6.949-.348 10.646-3.055v2.051h7.451l.014-9 3.112-3.222 6.78 12.222h8.945l-10.27-17.468 10.004-11.01h-9.153l-9.418 10.8V13.005h-7.465v3.278C40.78 13.843 37.097 12 31.348 12c-12.432 0-14.762 7.562-14.762 11.804 0 5.818 3.125 9.055 8.581 10.367l7.73 1.897c4.074 1.005 6.99 1.745 6.99 4.758 0 4.019-4.242 4.981-8.05 4.981-6.99 0-8.149-4.074-8.149-6.237H16c0 4.758 2.428 12.85 16.408 12.85zm5.08-22.91l-9.363-2.274c-1.59-.376-4.074-1.004-4.074-4.018 0-3.446 3.655-4.604 6.725-4.604 6.99 0 7.618 4.074 7.827 5.818h4.451v7.158c-1.632-.95-3.571-1.577-5.567-2.08z" fill="#222"/></svg>
